X:53
T:The New Town of Edinburgh
R:Reel
D:Irish Dancing Tape (P. Acc)
Z:Adrian Scahill irtrad-l 2001-05-15
M:4/4
L:1/8
K:G
g2fg egdc|Bcdc BG (3Bcd|g2fg egdg|cgBg A2f2|\
g2fg egdc|Bcdc BAGF|EGAB cdef|1 gGGF G2f2:|2 gGGF G2dc||\
B2^AB =ABGA|BGBd gdBG|(3cdc Bc ^AB=AB|cBcd e2dc|\
B2^AB =ABGA|BGBd gdBG|(3EFG AB cdef|gGGF G4:||
